X: 25646
T: Martin Riley's
R: reel
M: 4/4
K: Gmajor
G,B,DB, CEGE|DFAF GBdB|ce e2 dBGB|cABG AGED|
B,2 DB, CEGE|DFAF GBdB|ce e2 dBGB|1 AcBA BG G2:|2 AcBA BGGA||
B2 dB eBdB|GB B2 AFGE|DG,B,D EGAB|cdef gfgd|
B2 dB eBdB|GB B2 AFGE|DG,B,D EGAB|cedc BG G2:|

